src/xmb/monochrome/Fairchild - Channel F.svg

<svg xmlns="http://www.w3.org/2000/svg" xml:space="preserve" width="64" height="64"><defs><clipPath id="a" clipPathUnits="userSpaceOnUse"><path d="M0 64h64V0H0z"/></clipPath></defs><g clip-path="url(#a)" transform="matrix(1 0 0 -1 0 64)"><path d="M38 42H26v1h12zm0-2H26v1h12zm0-2H26v1h12zm0-2H26v1h12zm0-2H26v1h12zm0-2H26v1h12zm0-2H26v1h12zm0-2H26v1h12zm0-2H26v1h12zm0-2H26v1h12zm0-2H26v1h12zm0-2H26v1h12zm0-2H26v1h12zm0-2H26v1h12zm0-2H26v1h12zm0-2H26v1h12zm0-2H26v1h12zm0-2H26v1h12zM26 6l1 1h10l1-1zm13 39h-1v1.273c0 .457-.354.847-.836.922l-3.081.48C34.275 48.84 34.911 51 37 51c2.712 0 3 2.077 3 3s-2.673 5-9 5-7.025-4.975-5-7c2-2 3-2 3-2v-2.467l-2.165-.338c-.481-.075-.835-.465-.835-.922V45h-1c-.736 0-1-.228-1-1V6c0-.771.264-1 1-1h14c.736 0 1 .229 1 1v38c0 .772-.264 1-1 1" style="fill:#fff;fill-opacity:1;fill-rule:nonzero;stroke:none"/></g></svg>

<?xml version="1.0" encoding="UTF-8" standalone="no"?>
<!-- Created with Inkscape (http://www.inkscape.org/) -->

<svg
   xmlns:dc="http://purl.org/dc/elements/1.1/"
   xmlns:cc="http://creativecommons.org/ns#"
   xmlns:rdf="http://www.w3.org/1999/02/22-rdf-syntax-ns#"
   xmlns:svg="http://www.w3.org/2000/svg"
   xmlns="http://www.w3.org/2000/svg"
   xmlns:sodipodi="http://sodipodi.sourceforge.net/DTD/sodipodi-0.dtd"
   xmlns:inkscape="http://www.inkscape.org/namespaces/inkscape"
   id="svg4834"
   version="1.1"
   inkscape:version="0.48.5 r10040"
   width="64"
   height="64"
   xml:space="preserve"
   sodipodi:docname="Fairchild - Channel F.svg"
   inkscape:export-filename="/Users/margetts/Desktop/Icon Workshop/Monochrome July/Fairchild - Channel F.png"
   inkscape:export-xdpi="360"
   inkscape:export-ydpi="360"><metadata
     id="metadata4840"><rdf:RDF><cc:Work
         rdf:about=""><dc:format>image/svg+xml</dc:format><dc:type
           rdf:resource="http://purl.org/dc/dcmitype/StillImage" /><dc:title></dc:title></cc:Work></rdf:RDF></metadata><defs
     id="defs4838"><clipPath
       clipPathUnits="userSpaceOnUse"
       id="clipPath4848"><path
         d="M 0,64 64,64 64,0 0,0 0,64 z"
         id="path4850"
         inkscape:connector-curvature="0" /></clipPath></defs><sodipodi:namedview
     pagecolor="#808080"
     bordercolor="#666666"
     borderopacity="1"
     objecttolerance="10"
     gridtolerance="10"
     guidetolerance="10"
     inkscape:pageopacity="0"
     inkscape:pageshadow="2"
     inkscape:window-width="1676"
     inkscape:window-height="1005"
     id="namedview4836"
     showgrid="false"
     inkscape:zoom="10.4375"
     inkscape:cx="27.976048"
     inkscape:cy="40"
     inkscape:window-x="4"
     inkscape:window-y="1"
     inkscape:window-maximized="1"
     inkscape:current-layer="g4842" /><g
     id="g4842"
     inkscape:groupmode="layer"
     inkscape:label="Fairchild - Channel F"
     transform="matrix(1.25,0,0,-1.25,0,64)"><g
       id="g4844"
       transform="scale(0.8,0.8)"><g
         id="g4846"
         clip-path="url(#clipPath4848)"><path
           d="m 38,42 -12,0 0,1 12,0 0,-1 z m 0,-2 -12,0 0,1 12,0 0,-1 z m 0,-2 -12,0 0,1 12,0 0,-1 z m 0,-2 -12,0 0,1 12,0 0,-1 z m 0,-2 -12,0 0,1 12,0 0,-1 z m 0,-2 -12,0 0,1 12,0 0,-1 z m 0,-2 -12,0 0,1 12,0 0,-1 z m 0,-2 -12,0 0,1 12,0 0,-1 z m 0,-2 -12,0 0,1 12,0 0,-1 z m 0,-2 -12,0 0,1 12,0 0,-1 z m 0,-2 -12,0 0,1 12,0 0,-1 z m 0,-2 -12,0 0,1 12,0 0,-1 z m 0,-2 -12,0 0,1 12,0 0,-1 z m 0,-2 -12,0 0,1 12,0 0,-1 z m 0,-2 -12,0 0,1 12,0 0,-1 z m 0,-2 -12,0 0,1 12,0 0,-1 z m 0,-2 -12,0 0,1 12,0 0,-1 z M 38,8 26,8 26,9 38,9 38,8 z M 26,6 27,7 37,7 38,6 26,6 z m 13,39 -1,0 0,1.273 c 0,0.457 -0.354,0.847 -0.836,0.922 l -3.081,0.48 C 34.275,48.84 34.911,51 37,51 c 2.712,0 3,2.077 3,3 0,0.923 -2.673,5 -9,5 -6.327,0 -7.025,-4.975 -5,-7 2,-2 3,-2 3,-2 l 0,-2.467 -2.165,-0.338 C 26.354,47.12 26,46.73 26,46.273 L 26,45 25,45 c -0.736,0 -1,-0.228 -1,-1 L 24,6 c 0,-0.771 0.264,-1 1,-1 l 14,0 c 0.736,0 1,0.229 1,1 l 0,38 c 0,0.772 -0.264,1 -1,1"
           style="fill:#ffffff;fill-opacity:1;fill-rule:nonzero;stroke:none"
           id="path4852"
           inkscape:connector-curvature="0" /></g></g></g></svg>
